X:1
T:Beautiful the Little Hands
T:Beautiful the Little Hands
T:W. Johns
T:Tasso Corben, 1880
T:Public Domain Courtesy of the Cyber Hymnal™
C:W. Johns
Z:Public Domain
Z:Courtesy of the Cyber Hymnal™
%%score 1 ( 2 3 )
L:1/8
Q:1/4=102
M:6/8
K:C
V:1 treble 
V:2 bass 
V:3 bass 
V:1
 [CE]2 [CE] [CE]2 [DF] | [EG]2 [Ec] [EG]2 z | [EG]2 [EG] ([B,D][CE])[DF] | [FA]2 [EG] [CE]2 z | %4
w: 1.~Beau- ti- ful the|lit- tle hands,|That ful- fill * the|Lord’s com- mands;|
w: 2.~All the lit- tle|hands were made|Je- sus’ pre- * cious|cause to aid;|
w: 3.~All the lit- tle|lips should pray|To the Sav- * ior|ev- ery day;|
w: 4.~What your lit- tle|hands can do,|That the Lord * in-|tends for you;|
 [CE]2 [CE] [CE]2 [DF] | [EG]2 [Ec] [EG]2 z | [FB][FB][FB] [FB][FB][FB] | [Ec]6 || %8
w: Beau- ti- ful the|lit- tle eyes,|Kin- dled with light from the|skies.|
w: All the lit- tle|hearts to beat|Warm in His ser- vice so|sweet.|
w: All the lit- tle|feet should go|Swift on His er- rands be-|low.|
w: Make that thing your|first de- light,|Do it to Him with your|might.|
"^Refrain" [Ac][Ac][Ac] [Ac][GB][FA] | [EG]2 [Ec] [CE]2 z | [EG]2 [DF] ([B,D][CE])[DF] | %11
w: |||
w: |||
w: Beau- ti- ful, beau- ti- ful|lit- tle hands,|That ful- fill * the|
w: |||
 [FA]2 [EG] [CE]2 z | [Ac][Ac][Ac] [Ac][GB][FA] | [EG]2 [Ec] [CE]2 z | [DF][DF][EG] [FA][FA][FB] | %15
w: ||||
w: ||||
w: Lord’s com- mands;|Beau- ti- ful, beau- ti- ful|lit- tle eyes,|Kin- dled with light from the|
w: ||||
 [Ec]6 |] %16
w: |
w: |
w: skies.|
w: |
V:2
 [C,G,]2 [C,G,] [C,G,]2 [C,G,] | [C,G,]2 [C,G,] [C,G,]2 z | G,2 G, G,2 [G,B,] | %3
 [C,C]2 [C,C] [C,G,]2 z | [C,G,]2 [C,G,] [C,G,]2 [C,G,] | [C,G,]2 [C,G,] [C,G,]2 z | %6
 G,G,G, G,G,G, | [C,G,]6 || F,F,F, F,[F,A,][F,C] | [C,C]2 [C,C] [C,G,]2 z | G,2 G, G,2 [G,B,] | %11
 [C,C]2 [C,C] [C,G,]2 z | F,F,F, F,[F,A,][F,C] | [C,C]2 [C,C] [C,G,]2 z | G,G,G, G,G,G, | %15
 [C,G,]6 |] %16
V:3
 x6 | x6 | G,2 G, G,2 x | x6 | x6 | x6 | G,G,G, G,G,G, | x6 || F,F,F, F, x2 | x6 | G,2 G, G,2 x | %11
 x6 | F,F,F, F, x2 | x6 | G,G,G, G,G,G, | x6 |] %16

